public/images/User.svg

<?xml version="1.0" encoding="utf-8"?>
<!-- Generator: Adobe Illustrator 16.0.0, SVG Export Plug-In . SVG Version: 6.00 Build 0)  -->
<!DOCTYPE svg PUBLIC "-//W3C//DTD SVG 1.1//EN" "http://www.w3.org/Graphics/SVG/1.1/DTD/svg11.dtd">
<svg version="1.1" id="Layer_1" xmlns="http://www.w3.org/2000/svg" xmlns:xlink="http://www.w3.org/1999/xlink" x="0px" y="0px"
	 width="128px" height="128px" viewBox="0 0 128 128" enable-background="new 0 0 128 128" xml:space="preserve">
<path fill="#546E7A" d="M64.001,8c10.815,0,18.16,3.68,21.825,10.938c3.063,6.07,3.063,13.406,3.063,19.875
	c0,8.39-4.235,18.41-11.628,27.484l-4.688,5.762l5.399,5.105c2.446,2.305,7.752,5.157,17.332,9.946
	c8.971,4.484,15.073,7.644,17.988,10.562c5.138,5.137,6.634,14.75,6.704,19.621c0.012,0.711-0.266,1.406-0.762,1.91
	c-0.508,0.517-1.184,0.798-1.902,0.798H10.664c-0.708,0-1.403-0.289-1.899-0.798c-0.496-0.504-0.775-1.199-0.768-1.906
	c0.023-1.343,0.393-13.309,6.704-19.625c2.915-2.914,9.018-6.069,17.988-10.562c9.576-4.781,14.886-7.638,17.332-9.954l5.399-5.102
	l-4.688-5.758c-7.384-9.07-11.624-19.09-11.624-27.484c0-6.469,0-13.805,3.063-19.875C45.841,11.68,53.179,8,64.001,8 M64.001,0
	C46.455,0,38.563,8.336,35.034,15.333c-3.923,7.769-3.923,16.48-3.923,23.48c0,10.32,4.923,22.101,13.417,32.535
	c-2.032,1.919-10.393,6.099-15.417,8.605c-9.963,4.984-16.285,8.281-20.065,12.063c-8.371,8.37-9.004,22.421-9.045,25.155
	c-0.047,2.853,1.057,5.609,3.063,7.649c2.004,2.03,4.743,3.179,7.6,3.179h106.669c2.859,0,5.595-1.148,7.599-3.179
	c2.005-2.04,3.11-4.797,3.067-7.653c-0.043-2.73-0.68-16.781-9.049-25.151c-3.774-3.782-10.1-7.079-20.066-12.063
	c-5.024-2.507-13.386-6.687-15.414-8.605c8.49-10.434,13.417-22.215,13.417-32.535c0-7,0-15.711-3.919-23.48
	C89.437,8.336,81.544,0,64.001,0L64.001,0z"/>
</svg>

<?xml version="1.0" encoding="UTF-8"?>
<svg width="128px" height="128px" viewBox="0 0 128 128" version="1.1" xmlns="http://www.w3.org/2000/svg" xmlns:xlink="http://www.w3.org/1999/xlink">
    <!-- Generator: Sketch 49.2 (51160) - http://www.bohemiancoding.com/sketch -->
    <title>User</title>
    <desc>Created with Sketch.</desc>
    <defs></defs>
    <g id="Page-1" stroke="none" stroke-width="1" fill="none" fill-rule="evenodd">
        <g id="User" fill="#FFFFFF" fill-rule="nonzero">
            <path d="M64.001,8 C74.816,8 82.161,11.68 85.826,18.938 C88.889,25.008 88.889,32.344 88.889,38.813 C88.889,47.203 84.654,57.223 77.261,66.297 L72.573,72.059 L77.972,77.164 C80.418,79.469 85.724,82.321 95.304,87.11 C104.275,91.594 110.377,94.754 113.292,97.672 C118.43,102.809 119.926,112.422 119.996,117.293 C120.008,118.004 119.73,118.699 119.234,119.203 C118.726,119.72 118.05,120.001 117.332,120.001 L10.664,120.001 C9.956,120.001 9.261,119.712 8.765,119.203 C8.269,118.699 7.99,118.004 7.997,117.297 C8.02,115.954 8.39,103.988 14.701,97.672 C17.616,94.758 23.719,91.603 32.689,87.11 C42.265,82.329 47.575,79.472 50.021,77.156 L55.42,72.054 L50.732,66.296 C43.348,57.226 39.108,47.206 39.108,38.812 C39.108,32.343 39.108,25.007 42.171,18.937 C45.841,11.68 53.179,8 64.001,8 Z M64.001,0 C46.455,0 38.563,8.336 35.034,15.333 C31.111,23.102 31.111,31.813 31.111,38.813 C31.111,49.133 36.034,60.914 44.528,71.348 C42.496,73.267 34.135,77.447 29.111,79.953 C19.148,84.937 12.826,88.234 9.046,92.016 C0.675,100.386 0.042,114.437 0.001,117.171 C-0.046,120.024 1.058,122.78 3.064,124.82 C5.068,126.85 7.807,127.999 10.664,127.999 L117.333,127.999 C120.192,127.999 122.928,126.851 124.932,124.82 C126.937,122.78 128.042,120.023 127.999,117.167 C127.956,114.437 127.319,100.386 118.95,92.016 C115.176,88.234 108.85,84.937 98.884,79.953 C93.86,77.446 85.498,73.266 83.47,71.348 C91.96,60.914 96.887,49.133 96.887,38.813 C96.887,31.813 96.887,23.102 92.968,15.333 C89.437,8.336 81.544,0 64.001,0 Z" id="Shape"></path>
        </g>
    </g>
</svg>
